X:1
T:Je ne l'ose dire
T:Je ne l'ose dire
T:Pierre Certon
C:Pierre Certon
%%score [ 1 2 3 4 ]
L:1/8
M:2/2
K:Bb
V:1 treble nm="Soprano" snm="S."
V:2 treble nm="Alto" snm="A."
V:3 treble-8 nm="Tenor" snm="T."
V:4 bass nm="Bass" snm="B."
V:1
 G2 ^F2 |[M:4/4] G2 B B B2 A A | A2 G3 G G G | ^F2 G2 B2 A2 | G4 G G G ^F | G2 A2 B2 A2 | %6
w: La la|la, je ne l'o–, je ne|l'o–, je ne l'o- se|di- re, la la|la, je le vous di-|rai, et la la|
w: ||||||
 G4 G G G ^F | G4 G2 G2 | G2 B2 A2 G2 | ^F2 G2 B3 B | A2 G2 G2 ^F2 | G4 B3 B | B2 B2 d2 B2 | %13
w: la, je le vous di-|rai. Il est|un homme en no|vil- le, qui de|sa femme est ja-|loux. Il n'est|pas ja- loux sans|
w: |* Il n'est|pas ja- loux sans|cau- se, mais il|est co- cu du|tout. Il l'ap-|prê- te,~et s'il la|
 A2 G2 B3 B | A2 G2 F2 E2 | D2 G2 G2 ^F2 | G2 B B B2 A A | A2 G3 G G G | ^F2 G2 B2 A2 | %19
w: cau- se, mais il|est co- cu du|tout, et la la|la, je ne l'o–, je ne|l'o–, je ne l'o- se|di- re, la la|
w: mè- ne au mar-|ché, s'en va à|tout. * * *||||
 G4 G G G ^F | G2 A2 B2 A2 | G4 G G G ^F | !fermata!G4 :| %23
w: la, je le vous di-|rai, et la la|la, je le vous di-|rai.|
w: ||||
V:2
 D2 D2 |[M:4/4] B,2 G G D2 F F | C2 E3 E D D | D2 B,2 G2 F2 | E4 E E D D | B,2 F2 G2 F2 | %6
 E4 E E D D | B,4 D2 D2 | D2 F2 F2 D2 | D2 B,2 D3 G | F2 E2 E2 D2 | B,4 G3 G | G2 G2 A2 G2 | %13
 ^F2 G2 G2 =F2 | F2 D2 D2 B,2 | B,2 D2 E2 D2 | B,2 G G D2 F F | C2 E3 E D D | D2 B,2 G2 F2 | %19
 E4 E E D D | B,2 F2 G2 F2 | E4 E E D D | !fermata!B,4 :| %23
V:3
 B2 A2 |[M:4/4] G4 B c d2 | A B c2 G A B G | A2 G2 d2 d2 | B4 c c B A | G2 d2 d2 d2 | B4 c c B A | %7
w: La la|la, je ne l'o–,|je ne l'o–, je ne l'o- se|di- re, la la|la, je le vous di-|rai, et la la|la, je le vous di-|
w: |||||||
 G4 B2 B2 | B2 d2 c2 B2 | A2 G2 (GAB) c | d2 B2 c2 A2 | G4 d3 d | d2 d2 d2 d2 | d2 B2 B2 d2 | %14
w: rai. Il est|un homme en no|vil- le, qui * * de|sa femme est ja-|loux. Il n'est|pas ja- loux sans|cau- se, mais il-|
w: * Il n'est|pas ja- loux sans|cau- se, mais * * il|est co- cu du|tout. Il l'ap-|prê- te,~et s'il la|mè- ne au mar-|
 c2 B2 A2 G2 | F2 B2 A2 A2 | G4 B c d2 | A B c2 G A B G | A2 G2 d2 d2 | B4 c c B A | G2 d2 d2 d2 | %21
w: est co- cu du|tout. Et la la|la, je ne l'o–,|je ne l'o–, je ne l'o- se|di- re, la la|la, je le vous di-|rai, et la la|
w: ché, s'en va à|tout. * * *||||||
 B4 c c B A | !fermata!G4 :| %23
w: la, je le vous di-|rai.|
w: ||
V:4
 G,2 D,2 |[M:4/4] G,4 G, G, D,2 | F, F, C,2 C, C, G, G, | D,2 G,2 G,2 D,2 | E,4 C, C, D, D, | %5
 G,2 D,2 G,2 D,2 | E,4 C, C, D, D, | G,4 G,2 G,2 | G,2 D,2 F,2 G,2 | D,2 G,2 G,3 G, | %10
 D,2 E,2 C,2 D,2 | G,4 G,3 G, | G,2 G,2 F,2 G,2 | D,2 G,2 G,2 B,2 | F,2 G,2 D,2 E,2 | %15
 B,,2 B,,2 C,2 D,2 | G,4 G, G, D,2 | F, F, C,2 C, C, G, G, | D,2 G,2 G,2 D,2 | E,4 C, C, D, D, | %20
 G,2 D,2 G,2 D,2 | E,4 C, C, D, D, | !fermata!G,4 :| %23

